!!!SOCIAL_FUNCTION:	initiation songs of the first and second degrees
!!!PDT:	1909
!!!OTL: No_13_Third_Initiation_Song.krn
!!!REG: Great_Lakes
!!!LANG: Non-Tone
!!!LING_GROUP: Algonquin
**kern	**kern
*staff2	*staff1
*clefF4	*clefF4
*k[f#]	*k[f#]
*M2/4	*M2/4
8r	8d\
=1	=1
8GG/L	4d\
8GG/J	.
8GG/L	8d\L
8GG/J	8d\J
=2	=2
8GG/L	2d\
8GG/J	.
8GG/L	.
8GG/J	.
=3	=3
2r	4.d\
.	8B\
=4	=4
2r	4d\
.	8B\L
.	8G\J
=5	=5
2r	4G\
.	8.G\L
.	16B\Jk
=6	=6
2r	4B\
.	8B\L
.	8B\J
=7	=7
2r	2G\
=8	=8
2r	4.G\
.	8E\
=9	=9
2r	4G\
.	8G\L
.	8G\J
=10	=10
2r	4G\
.	8.G\L
.	16B\Jk
=11	=11
2r	4B\
.	8d\L
.	8d\J
=12	=12
2r	2B\
=13	=13
2r	4.B\
.	8d\
=14	=14
2r	4B\
.	8A\L
.	8G\J
=15	=15
2r	4G\
.	8E\L
.	8G\J
=16	=16
2r	4G\
.	8G\L
.	8G\J
=17	=17
2r	2G\
=18	=18
2r	4.G\
.	8E\
=19	=19
2r	4G\
.	8E\L
.	8D\J
=20	=20
2r	4D\
.	8.D\L
.	16D\Jk
=21	=21
2r	4D\
.	8D\L
.	8D\J
=22	=22
2r	2D\
=23	=23
2r	4.D\
.	8BB/
=24	=24
2r	4D\
.	8BB/L
.	8GG/J
=25	=25
2r	4GG/
.	4GG/
==	==
*-	*-
